X: 1
T: the Wind that Shakes the Piggery
C: Lindsay Ross (?-1980)
D: Alex McIntyre "My Dungannon Sweetheart" medley track
B: The Dance Music of Lindsay Ross
R: jig
Z: 2012 John Chambers <jc:trillian.mit.edu>
M: 6/8
L: 1/8
K: F
c |:\
"F"Acf a3- | a2e gfd |c2f "Gm"G3- | G2A BAG |\
"C7"EGc e3- | edc BAG |1 "F"FAG FGF | "C7"E2c BAG :|2 "F"FAG FAc | "F"f3 z ||
GF |\
"C7"EGc e3- | eGA BAG | "F"FAc f3- | fAB cBA |\
"G7"G=Bd g3- | gfe dc=B | "C"c=Bc "G7"e2d | "C7"c2B A2G ||
Acf a3- | a2e gfd | c2f "Gm"G3- | G2A BAG |\
"C7"EGc e3- | edc BAG | "F"FAG FAc | f3 z2 |]
